packages/astro-components-stencil/src/icons/healing.svg

<svg width="24" height="24" viewBox="0 0 24 24" fill="none" xmlns="http://www.w3.org/2000/svg">
<path fill-rule="evenodd" clip-rule="evenodd" d="M17.73 12.0201L21.71 8.04006C22.1 7.65006 22.1 7.02006 21.71 6.63006L17.37 2.29006C16.98 1.90006 16.35 1.90006 15.96 2.29006L11.98 6.27006L8.00002 2.29006C7.80002 2.10006 7.55002 2.00006 7.29002 2.00006C7.04002 2.00006 6.78002 2.10006 6.59002 2.29006L2.25002 6.63006C1.86002 7.02006 1.86002 7.65006 2.25002 8.04006L6.23002 12.0201L2.25002 16.0001C1.86002 16.3901 1.86002 17.0201 2.25002 17.4101L6.59002 21.7501C6.98002 22.1401 7.61002 22.1401 8.00002 21.7501L11.98 17.7701L15.96 21.7501C16.16 21.9501 16.41 22.0401 16.67 22.0401C16.93 22.0401 17.18 21.9401 17.38 21.7501L21.72 17.4101C22.11 17.0201 22.11 16.3901 21.72 16.0001L17.73 12.0201ZM12 9.00006C12.55 9.00006 13 9.45006 13 10.0001C13 10.5501 12.55 11.0001 12 11.0001C11.45 11.0001 11 10.5501 11 10.0001C11 9.45006 11.45 9.00006 12 9.00006ZM3.66002 7.34006L7.29002 10.9601L10.91 7.33006L7.29002 3.71006L3.66002 7.34006ZM10 13.0001C9.45002 13.0001 9.00002 12.5501 9.00002 12.0001C9.00002 11.4501 9.45002 11.0001 10 11.0001C10.55 11.0001 11 11.4501 11 12.0001C11 12.5501 10.55 13.0001 10 13.0001ZM11 14.0001C11 14.5501 11.45 15.0001 12 15.0001C12.55 15.0001 13 14.5501 13 14.0001C13 13.4501 12.55 13.0001 12 13.0001C11.45 13.0001 11 13.4501 11 14.0001ZM14 11.0001C14.55 11.0001 15 11.4501 15 12.0001C15 12.5501 14.55 13.0001 14 13.0001C13.45 13.0001 13 12.5501 13 12.0001C13 11.4501 13.45 11.0001 14 11.0001ZM13.03 16.7201L16.66 20.3401L20.28 16.7101L16.66 13.0901L13.03 16.7201Z" fill="black"/>
</svg>

<svg xmlns="http://www.w3.org/2000/svg" viewBox="0 0 24 24"><g xmlns="http://www.w3.org/2000/svg" id="healing" fill-rule="nonzero">
            <path d="M17.73 12.02l3.98-3.98a.996.996 0 000-1.41l-4.34-4.34a.996.996 0 00-1.41 0l-3.98 3.98L8 2.29a1.001 1.001 0 00-1.41 0L2.25 6.63a.996.996 0 000 1.41l3.98 3.98L2.25 16a.996.996 0 000 1.41l4.34 4.34c.39.39 1.02.39 1.41 0l3.98-3.98 3.98 3.98c.2.2.45.29.71.29.26 0 .51-.1.71-.29l4.34-4.34a.996.996 0 000-1.41l-3.99-3.98zM12 9c.55 0 1 .45 1 1s-.45 1-1 1-1-.45-1-1 .45-1 1-1zm-4.71 1.96L3.66 7.34l3.63-3.63 3.62 3.62-3.62 3.63zM10 13c-.55 0-1-.45-1-1s.45-1 1-1 1 .45 1 1-.45 1-1 1zm2 2c-.55 0-1-.45-1-1s.45-1 1-1 1 .45 1 1-.45 1-1 1zm2-4c.55 0 1 .45 1 1s-.45 1-1 1-1-.45-1-1 .45-1 1-1zm2.66 9.34l-3.63-3.62 3.63-3.63 3.62 3.62-3.62 3.63z"/>
        </g></svg>
